X:1
T:While that the Sun
T:William Byrd (c.1540-1623)
T:While that the Sun
T:© Choral Public Domain Library 2010
T:© Choral Public Domain Library 2010
T:© Choral Public Domain Library 2010
T:© Choral Public Domain Library 2010
T:© Choral Public Domain Library 2010
C:William Byrd (c.1540-1623)
Z:© Choral Public Domain Library 2010
%%score [ 1 2 3 4 ]
L:1/8
M:4/4
K:F
V:1 treble nm="Soprano" snm="S."
V:2 treble nm="Alto" snm="A."
V:3 treble-8 nm="Tenor" snm="A."
V:4 treble-8 transpose=-12 nm="Tenor" snm="T."
V:1
 [Cf]2 |[M:4/2] A4 A2 A2 c4 z2 c2- | c2 B2 A4 A8 | z2 c3 c G2 A4 G4 | F4 z2 A2 d8 | %5
w: |While that the Sun with|_ his beams hot,|scorch- ed the fruits in|vale and moun-|
 ^c4 z2 d2 d2 d2 d4 | d2 c4 c2 c4 z2 f2 | e2 d2 c2 B2 A6 c2 | A8 A4 z4 | z2 A2 G2 A2 c2 A2 A4 | %10
w: tain: Phi- lon the shep-|herd late for- got, sit-|ting be- sides a Cry- stal|foun- tain,|sit- ting be- sides a Cry-|
 A2 B4 AG A8 | z2 A2 F2 D2 d6 c2- | c2 B4 A3 G G4 ^F2 | G4 z2 G2 E2 C2 c4- | c2 B4 A4 G3 F F2- | %15
w: stal foun- * * tain,|in sha- dow of a|_ green Oak _ _ _|tree, up- on his pipe|_ this song played _ _|
 F2 ED E4 F8 | z8 z4 c2 e2- | ec f2 e2 c2 c2 d3 c =B2 | c2 G2 z2 G2 d8 | c8 z4 z2 A2 | %20
w: _ _ _ _ he:|un- true|_ love, un- true love, un- true love, a-|dieu love, a- dieu|love, your|
 B2 c2 dcBA G2 c2 d2 e2 | fedc B4 A4 A4- | A2 G2 A4 z2 f2 d4 | z2 c2 A4 c2 d2 e4 | d8 z4 z2 c2 | %25
w: mind is light, _ _ _ _ your mind is|light, _ _ _ _ your mind|_ is light, soon lost,|soon lost for new _|love, soon|
 A4 B4 A8 | !fermata!A16 |] %27
w: lost for new|love.|
V:2
 [G,c]2 |[M:4/2] F4 F2 F2 E4 z2 A2- | A2 G2 E4 ^F4 z2 A2- | AA A2 G4 F4 E4 | z2 A2 c4 B2 A4 G2 | %5
w: |While that the Sun with|_ his beams hot, scorch-|* ed the fruits in vale|and moun- tain, moun- *|
 A4 z2 B2 B2 A2 G4 | ^F2 =F4 E2 F2 A2 G2 F2 | G4 z4 z2 F2 E2 C2 | E2 D4 ^C2 D2 F2 E2 D2 | %9
w: tain: Phi- lon the shep-|herd late for- got, sit- ting be-|sides a Cry- stal|foun- * * tain, sit- ting be-|
 C4 z4 z2 F2 E2 C2- | C2 G3 F D2 E4 A,4 | z4 z2 A2 F2 D2 A4- | A2 G2 F2 F2 D4 z2 D2 | %13
w: sides, be- sides a|_ Cry- stal _ foun- tain,|in sha- dow of|_ a green Oak tree, up-|
 =B,2 G,2 C4 z2 G2 E2 C2 | G4 C4 D2 C2 C2 C2 | B,4 G,4 A,4 z2 C2 | F4 F2 F2 F2 F2 A2 G2- | %17
w: on his pipe, up- on his|pipe this song played he, this|song played he: a-|dieu love, a- dieu love, un- true|
 GF A2 G2 E2 A2 B3 A G2 | G2 E2 G4 B8 | A4 z4 z4 z2 F2 | G2 A2 BAGF E2 F2 B2 G2 | %21
w: _ love, un- true love, un- true love, a-|dieu love, a- dieu|love, your|mind is light, _ _ _ _ your mind is|
 A4 z2 G2 E4 F2 E2- | E2 D2 ^C4 D4 z2 B2 | G4 F2 A4 GF E2 A2 | FG A4 G2 A8 | z2 F2 D4 ^C2 D4 C2 | %26
w: light, soon lost, soon lost|_ for new love, soon|lost for new _ _ love, for|new _ _ _ love,|soon lost for new _|
 !fermata!D16 |] %27
w: love.|
V:3
 [F,B]2 |[M:4/2] D4 D2 D2 C4 z2 F2- | F2 D2 ^C4 D4 z2 F2- | FF F2 E4 F2 C4 C2 | %4
w: |While that the Sun with|_ his beams hot, scorch-|* ed the fruits in vale, in|
 A,2 D2 E2 C2 D2 F4 ED | E4 z2 G2 G2 D2 B4 | A2 A4 G2 A2 F2 E2 D2 | C2 D2 E3 D F4 C2 E2 | %8
w: vale and moun- tain, and moun- * *|tain: Phi- lon the shep-|herd late for- got, sit- ting be-|sides a Cry- stal foun- tain, a|
 C2 F2 E4 D2 D2 C2 B,2 | A,4 z2 F2 E2 D2 C2 A,2 | E4 D2 D4 ^C=B, C4 | D4 z4 D4 E3 E | %12
w: Cry- stal foun- tain, sit- ting be-|sides, sit- ting be- sides a|Cry- stal foun- * * *|tain, in sha- dow|
 F2 D2 z2 D2 B,2 G,2 A,4 | G,8 z4 C4 | D3 E F2 C2 B,2 G,2 A,2 A,2 | D4 C4 C8 | %16
w: of a, of a green Oak|tree, up-|on his pipe this song played he, this|song played he:|
 A,2 C3 A, D2 C2 A,2 F2 C2- | CA, F,2 C2 C2 F2 F3 F D2 | E2 C2 z2 E2 F8 | F4 z2 E2 F2 G2 AGFE | %20
w: a- dieu love, a- dieu love, un- true|_ love, un- true love, un- true love, a-|dieu love, a- dieu|love, your mind is light, _ _ _|
 D2 C2 G4 z8 | z2 F2 D4 z2 C2 A,4 | C2 D2 E4 D8 | z4 z2 F2 E2 D2 ^C4 | D4 B,4 A,4 C4- | %25
w: _ is light,|soon lost, soon lost|for new _ love,|soon lost for new|love, for new love,|
 C4 z2 G2 E2 F2 E4 | !fermata!^F16 |] %27
w: _ soon lost for new|love.|
V:4
 [B,f]2 |[M:4/2] D4 D2 D2 A4 z2 F2- | F2 G2 A4 D4 z2 d2- | dd A2 c4 F4 C4 | D4 A4 G2 F2 B4 | %5
w: |While that the Sun with|_ his beams hot, scorch-|* ed the fruits in vale|and moun- tain, and moun-|
 A4 z2 G2 G2 ^F2 G4 | D2 F4 C2 F4 z4 | z2 B2 A2 G2 F2 D2 A4- | A2 d2 A4 D4 z4 | %9
w: tain: Phi- lon the shep-|herd late for- got,|sit- ting be- sides a Cry-|* stal foun- tain,|
 z2 F2 E2 D2 C2 D2 A4- | A2 G2 B4 A4 z2 A2 | F2 D2 d6 B2 A4 | F2 G2 D4 G4 D4 | z2 G2 E2 C2 c6 A2 | %14
w: sit- ting be- sides a Cry-|* stal foun- tain, in|sha- dow of a green|Oak _ tree, Oak tree,|up- on his pipe this|
 G4 F6 E2 F2 F2 | B,4 C4 F8 | F2 A3 F B2 A2 F2 z4 | z8 F2 B3 F G2 | C2 C2 z2 c2 B8 | %19
w: song played _ he, this|song played he:|a- dieu love, a- dieu love,|un- true love a-|dieu love, a- dieu|
 F4 z2 c2 d2 e2 fedc | B2 A2 G2 G2 c2 A2 G2 c2 | F4 G4 A4 z2 c2 | A2 B2 A4 D4 z2 G2 | %23
w: love, your mind is light, _ _ _|_ is light, your mind is light, is|light, soon lost, soon|lost for new love, soon|
 E4 F3 G A4 A4 | z2 f2 d4 z2 c2 A4 | F4 G4 A8 | !fermata!D16 |] %27
w: lost for new _ love,|soon lost, soon lost|for new _|love.|

